packages/icons/svg/Outline/behance.svg

<svg fill="none" height="24" viewBox="0 0 24 24" width="24" xmlns="http://www.w3.org/2000/svg"><path clip-rule="evenodd" d="m13.25 9.70294h3v-.5h-3zm2.538 2.59086h-2.061v-.01c0-.618.412-1.096 1.038-1.096.62 0 1.023.473 1.023 1.096zm-1.033-1.9968c-1.354 0-2.28.837-2.28 2.252v.441c0 1.479.921 2.307 2.333 2.307 1.378 0 2.047-.77 2.169-1.543h-1.184c-.107.392-.466.628-.975.628-.65 0-1.091-.464-1.091-1.196v-.132h3.298v-.474c0-1.388-.868-2.283-2.27-2.283zm-5.53602 3.9401h-.959v-1.933h1.227c.75702 0 1.17002.376 1.17002.99 0 .619-.417.943-1.43802.943zm-.959-4.5671h1.145c.60502 0 .95902.324.95902.852 0 .567-.38302.886-1.25102.886h-.853zm2.25802 2.114v-.056c.647-.158 1.122-.634 1.122-1.424 0-.995-.767-1.601-1.93703-1.601h-2.728v6.5h2.723c1.32803 0 2.27703-.671 2.27703-1.833 0-.975-.671-1.51-1.457-1.586zm1.482 8.2161c-4.41098 0-7.99998-3.589-7.99998-8 0-4.41104 3.589-8.00003 7.99998-8.00003 4.411 0 8 3.58899 8 8.00003 0 4.411-3.589 8-8 8zm0-18.0001c-5.514 0-10 4.486-10 10s4.486 10 10 10 10-4.486 10-10-4.486-10-10-10z" fill="#6b7280" fill-rule="evenodd"/></svg>

<svg width="24" height="24" viewBox="0 0 24 24" fill="none" xmlns="http://www.w3.org/2000/svg">
<g id="Icon/Outline/behance">
<path id="Mask" fill-rule="evenodd" clip-rule="evenodd" d="M13.25 9.703H16.25V9.203H13.25V9.703ZM15.788 12.294H13.727V12.284C13.727 11.666 14.139 11.188 14.765 11.188C15.385 11.188 15.788 11.661 15.788 12.284V12.294ZM14.755 10.297C13.401 10.297 12.475 11.134 12.475 12.549V12.99C12.475 14.469 13.396 15.297 14.808 15.297C16.186 15.297 16.855 14.527 16.977 13.754H15.793C15.686 14.146 15.327 14.382 14.818 14.382C14.168 14.382 13.727 13.918 13.727 13.186V13.054H17.025V12.58C17.025 11.192 16.157 10.297 14.755 10.297ZM9.219 14.237H8.26V12.304H9.487C10.244 12.304 10.657 12.68 10.657 13.294C10.657 13.913 10.24 14.237 9.219 14.237ZM8.26 9.67H9.405C10.01 9.67 10.364 9.994 10.364 10.522C10.364 11.089 9.981 11.408 9.113 11.408H8.26V9.67ZM10.518 11.784V11.728C11.165 11.57 11.64 11.094 11.64 10.304C11.64 9.309 10.873 8.703 9.703 8.703H6.975V15.203H9.698C11.026 15.203 11.975 14.532 11.975 13.37C11.975 12.395 11.304 11.86 10.518 11.784ZM12 20C7.589 20 4 16.411 4 12C4 7.589 7.589 4 12 4C16.411 4 20 7.589 20 12C20 16.411 16.411 20 12 20ZM12 2C6.486 2 2 6.486 2 12C2 17.514 6.486 22 12 22C17.514 22 22 17.514 22 12C22 6.486 17.514 2 12 2Z" fill="#000000"/>
</g>
</svg>
